X: 1
M: 3/4
K: F
L: 1/4
cGc| d2 c/2=B/2 | c G A | B2 A | G A B | G A B |G G F |1 G2 z :|2 G2 G |: F F
E| D2  D| CD  E |1 D D G:|2 D2 B | A G F | G A  B | A G F | G A  B | B/2c/2 c B
| A G F | F2 F | D3 |]
</abc>
<abc>
